X: 123
T: Cantantibus organis – Andante sostenuto
C: Franciszek Walczyński
%%abc-version 2.0
%%abcx-abcm2ps-target-version 5.9.1 (29 Sep 2008)
%%abc-creator hum2abc beta
%%abcx-conversion-date 2021/10/04 07:38:38
%%abc-edited-by Kamil Watkowski
%%abcx-initial-encoding-date 2021-08-09
%%humdrum-veritas 593068274
%%humdrum-veritas-data 2904352833
%%linebreak <none>
%%barnumbers 0
L: 1/4
M: 3/4
N: Derived from pl-kozmzk--mzk-m-346--025_walczynski-franciszek--cantantibus-organis-andante-sostenuto.krn
%%staves {1 2}
V: 1 clef=treble
V: 2 clef=bass
K: A
[V:1] z3 & z3 | 
[V:2] z3 & F,,/^E,,/F,,/A,,/C,/F,/ | 
[V:1] z3 & z3 | 
[V:2] z3 & A,G,F, | 
[V:1] c3- & [^EG][FA][^DF] | 
[V:2] C3- | 
[V:1] czz & [^EG]xx | 
[V:2] C/^D/C/G,/C | 
[V:1] z3 & z3 | 
[V:2] z3 & C,/^B,,/C,/^E,/G,/B,/ | 
[V:1] z3 & z3 | 
[V:2] z3 & DCB, | 
[V:1] ABG & EFE/D/ | 
[V:2] CDB, & A,D,E, | 
[V:1] Azz & Czz | 
[V:2] A,/B,/A,/E,/A, & B,,zz | 
[V:1] z3 & z3 | 
[V:2] z3 & A,,/G,,/A,,/C,/E,/A,/ | 
[V:1] z3 & z3 | 
[V:2] z3 & CB,A, | 
[V:1] dcB/A/ & BAG/F/ | 
[V:2] ^EFD/^D/ & G,A,B,/^B,/ | 
[V:1] c/^d/c/G/!fermata!c & !fermata![^E3G3] | 
[V:2] ^E3 & !fermata!C3 | 
[V:1] z3 & z3 | 
[V:2] z/ C/!accent!D!accent!B, & z/ C,/!accent!D,!accent!B,, | 
[V:1] z3 & z3 | 
[V:2] z/ ^E/!accent!F!accent!^B, & z/ ^E,/!accent!F,!accent!^B,, | 
[V:1] z!accent!A3/G/ & xF^E | 
[V:2] z/ C/=CB, & C,3 | 
[V:1] F3 & F3 | 
[V:2] A,3 & F,,/G,,/F,,/C,,/F,, | 
[V:1] F3- & DCB, | 
[V:2] B,A,G, & F,,3- | 
[V:1] !fermata!F3 & [A,3C3] |]  
[V:2] F,/G,/F,/C,/!fermata!F, & !fermata!F,,3 |]  


